Source/HTML/PIC/B.svg

<svg width="24" height="24" viewBox="0 0 24 24" fill="none" xmlns="http://www.w3.org/2000/svg">
<circle cx="12" cy="12" r="12" fill="none"/>
<path d="M16.37 11.6869C16.7553 11.143 16.9852 10.4622 16.9852 9.72248C16.9852 7.94269 15.6576 6.4998 14.0206 6.4998C13.8896 6.4998 13.7302 6.4998 13.548 6.4998V4.00765C13.548 3.86574 13.4319 3.75 13.2904 3.75H12.4304C12.2885 3.75 12.1727 3.86616 12.1727 4.00765V6.4998H10.7978V4.00765C10.7978 3.86574 10.6816 3.75 10.5402 3.75H9.68095C9.53904 3.75 9.4233 3.86616 9.4233 4.00765V6.4998H6.58724C6.4449 6.4998 6.32959 6.61511 6.32959 6.75744V7.62538C6.32959 7.75813 6.42873 7.87308 6.56106 7.8851C7.52942 7.97387 8.04837 8.62357 8.04837 9.42176V14.75C8.04837 15.4681 7.67786 16.0381 6.86807 16.1161C6.75312 16.1273 6.6577 16.209 6.63617 16.3228L6.47187 17.1989C6.4424 17.3553 6.56271 17.5002 6.72207 17.5002H9.42245V19.9924C9.42245 20.1342 9.53861 20.25 9.68009 20.25H10.5393C10.6812 20.25 10.7969 20.1338 10.7969 19.9924V17.5002H12.1719V19.9924C12.1719 20.1342 12.288 20.25 12.4295 20.25H13.2887C13.4306 20.25 13.5463 20.1338 13.5463 19.9924V17.5002C14.0334 17.5002 14.4379 17.5002 14.7064 17.5002C16.3439 17.5002 17.671 16.0768 17.671 14.3207C17.6726 13.2244 17.1562 12.2586 16.37 11.6869ZM10.7974 8.56207C10.7974 8.56207 12.1196 8.56207 12.9028 8.56207C13.6862 8.56207 14.3208 9.19682 14.3208 9.98013C14.3208 10.7634 13.6862 11.3981 12.9028 11.3981C12.1196 11.3981 10.7974 11.3981 10.7974 11.3981V8.56207ZM13.5903 15.5232C12.8071 15.5232 10.7974 15.5232 10.7974 15.5232V12.6872C10.7974 12.6872 12.8071 12.6872 13.5903 12.6872C14.3737 12.6872 15.0083 13.3219 15.0083 14.1052C15.0083 14.8884 14.3737 15.5232 13.5903 15.5232Z" fill="#445368"/>
</svg>

<svg width="24" height="24" fill="none" xmlns="http://www.w3.org/2000/svg"><circle cx="12" cy="12" r="12"/><path d="M16.37 11.687a3.392 3.392 0 00.615-1.965c0-1.78-1.327-3.222-2.964-3.222h-.473V4.008a.258.258 0 00-.258-.258h-.86a.258.258 0 00-.257.258V6.5h-1.375V4.008a.258.258 0 00-.258-.258h-.859a.258.258 0 00-.258.258V6.5H6.587a.258.258 0 00-.257.257v.868c0 .133.099.248.231.26.968.089 1.487.739 1.487 1.537v5.328c0 .718-.37 1.288-1.18 1.366a.258.258 0 00-.232.207l-.164.876c-.03.156.09.301.25.301h2.7v2.492c0 .142.117.258.258.258h.86a.258.258 0 00.257-.258V17.5h1.375v2.492c0 .142.116.258.258.258h.859a.258.258 0 00.257-.258V17.5h1.16c1.638 0 2.965-1.423 2.965-3.18.002-1.096-.515-2.061-1.301-2.633zm-5.573-3.125h2.106a1.418 1.418 0 110 2.836h-2.106V8.562zm2.793 6.961h-2.793v-2.836h2.793a1.418 1.418 0 110 2.836z" fill="#445368"/></svg>
